tools/download-figma-icons/icons/solid/coin-50.svg

<svg width="24" height="24" viewBox="0 0 24 24" fill="none" xmlns="http://www.w3.org/2000/svg">
<path fill-rule="evenodd" clip-rule="evenodd" d="M20.25 11.25C20.2875 11.25 20.3325 11.25 20.3775 11.2425C20.7825 11.1667 21.06 10.785 20.9925 10.3725C20.6925 8.65497 19.7625 6.94497 18.3675 5.54172C16.9875 4.16247 15.39 3.31497 13.6275 3.00747C13.215 2.93997 12.8325 3.21747 12.7575 3.62247C12.69 4.03497 12.9675 4.41672 13.3725 4.49247C14.8275 4.73997 16.1475 5.45172 17.3025 6.60672C18.4875 7.78497 19.2683 9.21747 19.5075 10.6275C19.575 10.995 19.89 11.25 20.25 11.25ZM14.6325 15.75C15.3375 15.75 15.945 15.495 16.3875 15.0075C17.3025 14.025 17.265 12.3975 17.2425 12.0225C17.265 11.6475 17.3025 9.975 16.3725 8.97675C15.93 8.505 15.3308 8.25 14.64 8.25H14.625C13.92 8.25 13.305 8.51175 12.855 9.0075C11.94 10.005 11.9858 11.655 12.0075 12.03C11.9858 12.405 11.9558 14.025 12.87 15.0075C13.32 15.495 13.9275 15.75 14.6325 15.75ZM9.675 15.6225C10.35 15.405 10.9125 14.7975 11.1375 14.0325C11.4 13.1475 11.1975 12.21 10.5825 11.4517C9.945 10.6725 9.0375 10.5743 8.25 10.7318V9.75H10.125C10.5375 9.75 10.875 9.4125 10.875 9C10.875 8.5875 10.5375 8.25 10.125 8.25H7.5C7.0875 8.25 6.75 8.5875 6.75 9V11.7892C6.75 12.0525 6.89325 12.3 7.1175 12.435C7.3425 12.57 7.6275 12.5767 7.86075 12.4493C7.8675 12.4425 8.98575 11.8568 9.42 12.3975C9.825 12.9 9.7725 13.3725 9.6975 13.6042C9.6 13.935 9.39 14.1368 9.225 14.19C8.57165 14.3955 7.99734 14.0047 7.95219 13.974C7.95121 13.9733 7.95048 13.9728 7.95 13.9725C7.62 13.7175 7.155 13.785 6.9 14.115C6.6525 14.445 6.72 14.9167 7.05 15.1642C7.0875 15.195 7.83075 15.75 8.8425 15.75C9.105 15.75 9.39 15.7125 9.675 15.6225ZM10.3725 20.9925C10.4175 21 10.4625 21 10.5 21C10.8608 21 11.175 20.745 11.2425 20.3775C11.31 19.965 11.0325 19.5825 10.6275 19.5075C9.23251 19.275 7.91251 18.5325 6.69751 17.3175C5.49001 16.11 4.72501 14.745 4.49251 13.3725C4.41751 12.9675 4.04251 12.69 3.62251 12.7575C3.21751 12.8325 2.94001 13.215 3.00751 13.6275C3.30001 15.3075 4.20751 16.9492 5.63251 18.3825C7.05751 19.8 8.69251 20.6992 10.3725 20.9925ZM0 12C0 5.38425 5.385 0 12 0C18.615 0 24 5.38425 24 12C24 18.615 18.615 24 12 24C5.385 24 0 18.615 0 12ZM14.6303 14.25C15.0045 14.25 15.1838 14.103 15.2858 13.9935C15.7388 13.506 15.7695 12.423 15.744 12.0825C15.741 12.045 15.741 12.0052 15.744 11.967C15.7703 11.6152 15.7388 10.4948 15.276 9.999C15.1763 9.891 14.979 9.7755 14.634 9.75C14.2493 9.7515 14.0663 9.903 13.962 10.017C13.4985 10.5232 13.4783 11.6182 13.5068 11.9625C13.5105 12.0022 13.5105 12.042 13.5075 12.0825C13.4835 12.4215 13.5173 13.5045 13.9718 13.9928C14.0745 14.103 14.2545 14.25 14.6303 14.25Z" fill="black"/>
</svg>

<svg width="24" height="24" viewBox="0 0 24 24" fill="none" xmlns="http://www.w3.org/2000/svg"><path fill-rule="evenodd" clip-rule="evenodd" d="M20.25 11.25c.038 0 .082 0 .128-.008a.76.76 0 0 0 .614-.87c-.3-1.717-1.23-3.427-2.625-4.83-1.38-1.38-2.977-2.227-4.74-2.535a.76.76 0 0 0-.87.615.76.76 0 0 0 .616.87c1.455.248 2.775.96 3.93 2.115 1.184 1.178 1.965 2.61 2.204 4.02a.754.754 0 0 0 .743.623Zm-5.617 4.5c.705 0 1.312-.255 1.755-.742.914-.983.877-2.61.854-2.985.023-.375.06-2.048-.87-3.046-.442-.472-1.041-.727-1.732-.727h-.015c-.705 0-1.32.262-1.77.758-.915.997-.87 2.647-.848 3.022-.021.375-.051 1.995.863 2.978.45.487 1.058.742 1.763.742Zm-4.958-.127c.675-.218 1.237-.825 1.462-1.59.263-.885.06-1.823-.555-2.581-.637-.78-1.545-.878-2.332-.72V9.75h1.875c.412 0 .75-.338.75-.75a.752.752 0 0 0-.75-.75H7.5a.752.752 0 0 0-.75.75v2.79a.75.75 0 0 0 1.11.66c.007-.008 1.126-.593 1.56-.053.405.503.353.976.277 1.207-.097.331-.307.533-.472.586-.653.206-1.228-.185-1.273-.216a.745.745 0 0 0-1.052.141.751.751 0 0 0 .15 1.05c.038.03.78.585 1.792.585.263 0 .548-.037.833-.127Zm.697 5.37c.046.007.09.007.128.007.36 0 .675-.255.742-.622a.76.76 0 0 0-.615-.87c-1.394-.233-2.714-.976-3.93-2.19-1.207-1.208-1.972-2.573-2.204-3.946a.756.756 0 0 0-.87-.614.76.76 0 0 0-.615.87c.292 1.68 1.2 3.321 2.625 4.755 1.425 1.417 3.06 2.316 4.74 2.61ZM0 12C0 5.384 5.385 0 12 0s12 5.384 12 12c0 6.615-5.385 12-12 12S0 18.615 0 12Zm14.63 2.25c.374 0 .554-.147.656-.257.453-.487.484-1.57.458-1.91a.742.742 0 0 1 0-.116c.026-.352-.005-1.472-.468-1.968-.1-.108-.297-.224-.642-.249-.385.002-.568.153-.672.267-.463.506-.484 1.601-.455 1.946a.601.601 0 0 1 0 .12c-.024.338.01 1.421.465 1.91.103.11.283.257.658.257Z" fill="currentColor"/></svg>
